X: 836
T: Jerry Daly's Hornpipe
R: hornpipe
%S: s:3 b:13(5+4+4)
B: Francis O'Neill: "The Dance Music of Ireland" (1907) #836
Z: Frank Nordberg - http://www.musicaviva.com
F: http://www.musicaviva.com/abc/tunes/ireland/oneill-1001/0836/oneill-1001-0836-1.abc
N: Compacted via repeats and multiple endings [JC]
M: C|
L: 1/8
K: Ador
(ed) | cABG A2(BA) | GEDE G2(cd) | (3efg (fa) ged [1,3 c | B2GG G2 :|[2,4 B | A2AA A2 :|
|: (3efg \
| a^gab a=gef | gedB G2(ef) | gfga gfef | gedB GABG ||
| EAAG AcBA | GFEF GABd | (3efg (fa) gedB | A2AA A2 :|
